X: 1
T: Morgan Andersen's Foret
M: 6/8
L: 1/8
R: jig
K: Dmix
|:F2D G2E|FGA A2G|FGA dAd|dcA GFE|
F2D G2E|FGA d^cd|e=cA GFE|FDD D3:|
|:dAd g/2f/2ed|efg e2d|cAc B^GB|^cAA A2G|
FED AFD|E=FG A B/2c/2d|ecA GFE|FDD D3:|
